_inc/images/systems/logos/sammy.svg

<?xml version="1.0" encoding="UTF-8" standalone="no"?>
<!-- Created with Inkscape (http://www.inkscape.org/) -->
<svg viewBox="0 0 631 165" xmlns="http://www.w3.org/2000/svg" width="631.00159" height="164.72501">
  <defs>
  </defs>
  <path d="M 99.678873,5.028802 C 90.993993,1.831415 81.847033,0 72.244753,0 C 58.986393,0 47.556073,2.745436 37.950419,8.232934 C 28.351513,14.175757 23.319338,20.577276 23.319338,28.351513 L 23.778035,29.265534 C 24.233359,39.323135 31.093575,47.097375 45.265963,52.584875 L 71.789433,29.265534 C 66.757253,29.265534 62.187153,28.351513 58.527693,26.520099 C 54.868243,24.692057 53.040193,22.405318 53.040193,19.204558 L 54.868243,15.089778 C 58.072373,11.430321 64.015193,9.602279 71.789433,9.602279 C 79.560293,9.602279 85.047793,11.430321 88.248553,15.089778 L 99.678873,5.028802"
     style="fill:#fff" />
  <path d="M 120.71484,30.179555 C 111.10919,22.405318 100.59626,17.376516 88.248553,15.089778 L 71.789433,29.265534 C 78.646273,29.720858 85.047793,31.552273 90.076593,35.208357 C 95.108773,39.323135 97.395503,44.355315 97.395503,49.839435 L 96.936813,53.040195 C 95.564093,58.072375 92.822033,62.187155 88.248553,65.387915 C 83.219753,68.588675 77.732253,69.961385 71.330733,69.961385 C 64.470513,69.961385 58.986393,68.129975 53.957593,64.929215 C 48.925413,61.728455 46.183353,57.613675 45.265963,52.584875 L 0,91.908005 C 3.659456,106.99778 12.344341,119.34213 25.606077,128.9444 C 38.867813,138.54668 54.412913,143.57548 71.789433,143.57548 C 91.904633,143.57548 109.28115,137.17735 123.45691,124.82962 C 137.63266,112.02659 144.9482,96.481485 144.9482,78.646275 C 144.9482,59.441715 136.71527,43.437915 120.71484,30.179555"
     style="fill:#fff" />
  <g style="fill:#fff">
  <path d="M 203.0172,13.261736 C 228.16795,13.261736 240.5123,26.064774 240.5123,52.126175 L 214.90622,52.126175 C 214.90622,40.695855 211.70546,35.208357 204.84862,35.208357 C 198.90242,35.208357 196.16036,38.409115 196.16036,44.810635 C 196.16036,49.384115 199.36112,53.498895 205.75926,57.613675 L 217.19296,64.929215 C 224.96382,69.961385 230.91002,74.990195 234.11078,79.104975 C 238.22556,85.051165 240.5123,92.366705 240.5123,100.13757 C 240.5123,113.3993 238.22556,122.54288 233.65208,128.48571 C 228.62328,134.43191 219.4797,137.63267 206.21796,137.63267 C 192.04558,137.63267 181.5259,133.97321 175.58308,126.20235 C 170.09558,119.34213 167.35015,109.28115 167.35015,95.108765 L 193.87362,95.108765 C 192.5009,108.36713 196.61568,114.76865 206.21796,114.76865 C 211.24676,114.76865 213.9922,112.02659 213.9922,106.0804 C 213.9922,101.51029 212.61948,97.850835 210.33274,95.108765 L 202.10318,88.707255 L 190.67286,81.847035 C 176.4971,73.162145 169.64026,62.187155 169.64026,48.470095 C 169.64026,38.867815 171.927,31.093576 176.04178,25.150754 C 181.9846,17.376516 190.67286,13.261736 203.0172,13.261736"  fill="white"/>
  <path d="M 377.22757,43.437915 C 386.37452,43.437915 392.77604,46.642055 396.43213,53.498895 C 401.0056,46.642055 407.40712,42.982595 415.63669,42.982595 C 419.75147,42.982595 424.32494,44.355315 428.43972,47.097375 C 434.38592,50.298135 437.12798,55.785635 437.12798,63.101175 L 437.12798,134.43191 L 411.5219,134.43191 L 411.5219,76.359535 L 410.60788,68.588675 C 410.14919,66.301935 408.32114,64.929215 405.12039,64.929215 C 401.91963,64.929215 399.63289,66.301935 398.71887,68.588675 L 398.26354,76.359535 L 398.26354,134.43191 L 372.65746,134.43191 L 372.65746,76.818235 L 372.19877,68.588675 C 371.28475,66.301935 369.4567,65.387915 366.25594,65.387915 C 363.05519,65.387915 361.22714,66.760625 360.76845,69.043995 L 360.30975,76.359535 L 360.30975,134.43191 L 334.24835,134.43191 L 334.24835,45.724655 L 358.9404,45.724655 L 358.9404,53.498895 L 361.22714,51.212155 C 365.79725,46.183355 371.28475,43.437915 377.22757,43.437915"  fill="white"/>
  <path d="M 631.0016,45.269335 L 610.88303,135.80462 C 607.68227,149.06298 602.65346,157.75125 595.79325,161.86603 C 592.13379,164.15276 586.64629,165.06679 579.78945,164.61147 L 570.64249,163.69406 L 570.64249,144.48951 L 578.41673,144.94821 C 582.07619,144.48951 582.99021,139.91941 580.70347,131.68648 L 561.49891,45.269335 L 588.47771,45.269335 L 595.79325,99.678875 L 604.48151,45.269335 L 631.0016,45.269335"  fill="white"/>
  <path d="M 493.82764,43.896615 C 502.97122,43.896615 509.37274,47.097375 512.5735,53.498895 C 517.6023,46.642055 524.46251,43.437915 532.23675,43.437915 C 536.35153,43.437915 540.92164,44.810635 545.03979,47.097375 C 550.98261,50.756835 553.72468,56.240955 553.72468,63.101175 L 553.72468,134.43191 L 527.66327,134.43191 L 527.66327,76.818235 L 527.20795,69.043995 C 526.74925,66.760625 524.92121,65.387915 521.71708,65.387915 C 518.51632,65.387915 516.23295,66.760625 515.31556,69.043995 L 514.86024,76.818235 L 514.86024,134.43191 L 489.25416,134.43191 L 489.25416,77.276925 L 488.79883,69.043995 C 488.34014,66.760625 486.0534,65.387915 482.85264,65.387915 C 479.65188,65.387915 477.82384,66.760625 477.36514,69.502695 L 476.90644,76.818235 L 476.90644,134.8906 L 450.84504,134.8906 L 450.84504,46.183355 L 475.5371,46.183355 L 475.5371,53.957595 L 477.82384,51.212155 C 482.39731,46.183355 487.88144,43.896615 493.82764,43.896615"  fill="white"/>
  <path d="M 318.70325,68.129975 L 318.70325,117.0554 L 319.15857,128.48571 C 319.61389,131.68648 320.07259,133.97321 321.44531,135.80462 L 295.83923,135.80462 L 292.63847,129.40311 L 287.15097,133.05918 C 283.03619,136.25994 278.92141,138.088 274.80663,138.088 C 266.11837,138.088 259.71685,135.80462 255.14338,131.68648 C 250.11458,127.5717 247.82784,122.08756 247.82784,114.31332 C 247.82784,105.62507 249.65588,99.223555 252.85664,94.194745 C 255.60207,89.621275 260.63088,85.961815 268.40511,83.678445 L 280.74945,79.104975 C 287.60967,76.818235 291.26575,74.076165 291.72445,71.330735 C 292.17978,68.129975 291.72445,65.387915 289.89641,63.101175 C 288.52369,60.814435 286.23695,59.900415 283.95021,60.359115 C 280.29413,60.359115 278.00739,62.187155 276.63467,65.387915 L 275.26196,73.617475 L 248.28653,73.617475 C 248.74186,60.359115 253.31534,51.670855 262.00022,46.642055 C 267.49109,43.437915 275.26196,42.068575 285.32293,42.068575 C 294.01119,42.068575 300.86803,42.982595 304.98281,44.810635 C 314.12977,48.470095 318.70325,56.240955 318.70325,68.129975 M 292.63847,92.366705 L 282.5775,96.936815 C 276.63467,100.13757 273.89261,104.25235 274.34794,109.28115 C 274.34794,113.3993 276.17598,116.60007 280.29413,117.97278 C 283.49152,118.88343 286.23695,118.4281 288.52369,116.60007 C 290.81043,114.31332 292.17978,111.11256 292.63847,106.0804 L 292.63847,92.366705"  fill="white"/>
  </g>
</svg>

<svg viewBox="0 0 631 165" xmlns="http://www.w3.org/2000/svg" width="631.002" height="164.725">
    <path d="M99.679 5.029C90.994 1.83 81.847 0 72.245 0 58.986 0 47.556 2.745 37.95 8.233c-9.598 5.943-14.63 12.344-14.63 20.119l.458.914c.455 10.057 7.316 17.831 21.488 23.319l26.523-23.32c-5.032 0-9.602-.913-13.261-2.745-3.66-1.828-5.488-4.115-5.488-7.315l1.828-4.115c3.204-3.66 9.147-5.488 16.921-5.488 7.771 0 13.259 1.828 16.46 5.488l11.43-10.061" style="fill:#fff"/>
    <path d="M120.715 30.18c-9.606-7.775-20.119-12.803-32.466-15.09l-16.46 14.176c6.857.455 13.259 2.286 18.288 5.942 5.032 4.115 7.319 9.147 7.319 14.631l-.46 3.201c-1.372 5.032-4.114 9.147-8.687 12.348-5.03 3.2-10.517 4.573-16.918 4.573-6.86 0-12.345-1.831-17.373-5.032-5.033-3.2-7.775-7.315-8.692-12.344L0 91.908c3.66 15.09 12.344 27.434 25.606 37.036 13.262 9.603 28.807 14.631 46.183 14.631 20.116 0 37.492-6.398 51.668-18.745 14.176-12.803 21.491-28.349 21.491-46.184 0-19.204-8.233-35.208-24.233-48.466m82.302-16.918c25.15 0 37.495 12.803 37.495 38.864h-25.606c0-11.43-3.2-16.918-10.057-16.918-5.947 0-8.689 3.201-8.689 9.603 0 4.573 3.201 8.688 9.6 12.803l11.433 7.315c7.77 5.032 13.717 10.061 16.918 14.176 4.115 5.946 6.401 13.262 6.401 21.033 0 13.261-2.286 22.405-6.86 28.348-5.029 5.946-14.172 9.147-27.434 9.147-14.172 0-24.692-3.66-30.635-11.43-5.487-6.86-8.233-16.922-8.233-31.094h26.524c-1.373 13.258 2.742 19.66 12.344 19.66 5.029 0 7.774-2.742 7.774-8.689 0-4.57-1.373-8.23-3.66-10.971l-8.229-6.402-11.43-6.86c-14.176-8.685-21.033-19.66-21.033-33.377 0-9.602 2.287-17.376 6.402-23.32 5.943-7.773 14.63-11.888 26.975-11.888m174.211 30.176c9.147 0 15.548 3.204 19.204 10.06 4.574-6.856 10.975-10.515 19.205-10.515 4.114 0 8.688 1.372 12.803 4.114 5.946 3.201 8.688 8.689 8.688 16.004v71.33h-25.606V76.36l-.914-7.771c-.459-2.287-2.287-3.66-5.488-3.66-3.2 0-5.487 1.373-6.401 3.66l-.455 7.77v58.073h-25.607V76.818l-.458-8.23c-.914-2.286-2.742-3.2-5.943-3.2-3.2 0-5.029 1.373-5.488 3.656l-.458 7.316v58.072h-26.062V45.725h24.692v7.774l2.287-2.287c4.57-5.029 10.058-7.774 16-7.774m253.775 1.832-20.119 90.535c-3.2 13.258-8.23 21.946-15.09 26.061-3.66 2.287-9.147 3.2-16.004 2.745l-9.147-.917V144.49l7.775.458c3.66-.458 4.573-5.029 2.286-13.262L561.5 45.27h26.979l7.315 54.41 8.689-54.41h26.52m-137.175-1.373c9.143 0 15.545 3.2 18.745 9.602 5.03-6.857 11.89-10.061 19.664-10.061 4.115 0 8.685 1.373 12.803 3.66 5.943 3.659 8.685 9.143 8.685 16.003v71.33h-26.062V76.819l-.455-7.774c-.459-2.283-2.287-3.656-5.49-3.656-3.202 0-5.485 1.373-6.402 3.656l-.456 7.774v57.614h-25.606V77.277l-.455-8.233c-.459-2.283-2.746-3.656-5.946-3.656-3.201 0-5.03 1.373-5.488 4.115l-.459 7.315v58.073h-26.061V46.183h24.692v7.775l2.287-2.746c4.573-5.029 10.057-7.315 16.004-7.315M318.703 68.13v48.925l.456 11.43c.455 3.201.914 5.488 2.286 7.32H295.84l-3.2-6.402-5.488 3.656c-4.115 3.2-8.23 5.029-12.344 5.029-8.689 0-15.09-2.283-19.664-6.402-5.028-4.114-7.315-9.598-7.315-17.373 0-8.688 1.828-15.09 5.029-20.118 2.745-4.574 7.774-8.233 15.548-10.517l12.344-4.573c6.86-2.287 10.517-5.029 10.975-7.774.456-3.201 0-5.943-1.828-8.23-1.372-2.287-3.66-3.2-5.946-2.742-3.656 0-5.943 1.828-7.315 5.029l-1.373 8.23h-26.975c.455-13.259 5.028-21.947 13.713-26.976 5.491-3.204 13.262-4.573 23.323-4.573 8.688 0 15.545.914 19.66 2.742 9.147 3.66 13.72 11.43 13.72 23.319m-26.065 24.237-10.06 4.57c-5.943 3.2-8.685 7.315-8.23 12.344 0 4.118 1.828 7.32 5.946 8.692 3.198.91 5.943.455 8.23-1.373 2.286-2.287 3.656-5.487 4.114-10.52V92.367" style="fill:#fff"/>
</svg>
